icons/mobile/24/svg/basketball-24.svg

<svg width="24" height="24" viewBox="0 0 24 24" fill="none" xmlns="http://www.w3.org/2000/svg">
<path fill-rule="evenodd" clip-rule="evenodd" d="M12 2C17.5228 2 22 6.47715 22 12C22 17.5228 17.5228 22 12 22C6.47715 22 2 17.5228 2 12C2 6.47715 6.47715 2 12 2ZM8.94629 12.875C8.7113 14.8442 7.68875 16.6021 6.11133 17.7764C7.41661 19.1069 9.16856 19.9958 11.125 20.2021V12.875H8.94629ZM12.875 12.875V20.2021C14.8312 19.9959 16.5825 19.1066 17.8877 17.7764C16.3103 16.6019 15.2878 14.8444 15.0527 12.875H12.875ZM3.79688 12.875C3.93258 14.1621 4.36509 15.36 5.02344 16.4014C6.18157 15.5532 6.95193 14.2955 7.17773 12.875H3.79688ZM16.8213 12.875C17.0471 14.2955 17.8175 15.5532 18.9756 16.4014C19.6341 15.3599 20.0674 14.1623 20.2031 12.875H16.8213ZM5.02344 7.59766C4.36484 8.63917 3.93261 9.83757 3.79688 11.125H7.17773C6.9519 9.70428 6.18183 8.44579 5.02344 7.59766ZM11.125 3.79688C9.16876 4.00313 7.41659 4.8924 6.11133 6.22266C7.68867 7.39724 8.71115 9.15572 8.94629 11.125H11.125V3.79688ZM12.875 11.125H15.0527C15.2884 9.15927 16.3113 7.39784 17.8877 6.22266C16.5825 4.89268 14.831 4.0031 12.875 3.79688V11.125ZM18.9756 7.59766C17.8185 8.44668 17.0487 9.70696 16.8223 11.125H20.2031C20.0674 9.83738 19.6343 8.63928 18.9756 7.59766Z" fill="black"/>
</svg>

<!-- This Source Code Form is subject to the terms of the Mozilla Public
   - License, v. 2.0. If a copy of the MPL was not distributed with this
   - file, You can obtain one at http://mozilla.org/MPL/2.0/. -->
<svg xmlns="http://www.w3.org/2000/svg" width="24" height="24" fill="none" viewBox="0 0 24 24">
    <path fill="#000" fill-rule="evenodd" d="M12 2c5.523 0 10 4.477 10 10s-4.477 10-10 10S2 17.523 2 12 6.477 2 12 2M8.946 12.875a7.14 7.14 0 0 1-2.835 4.901 8.22 8.22 0 0 0 5.014 2.426v-7.327zm3.929 0v7.327a8.22 8.22 0 0 0 5.013-2.426 7.14 7.14 0 0 1-2.835-4.901zm-9.078 0a8.2 8.2 0 0 0 1.226 3.526 5.4 5.4 0 0 0 2.155-3.526zm13.024 0a5.4 5.4 0 0 0 2.155 3.526 8.2 8.2 0 0 0 1.227-3.526zM5.023 7.598a8.2 8.2 0 0 0-1.226 3.527h3.38a5.4 5.4 0 0 0-2.154-3.527m6.102-3.801a8.22 8.22 0 0 0-5.014 2.426 7.15 7.15 0 0 1 2.835 4.902h2.179zm1.75 7.328h2.178a7.16 7.16 0 0 1 2.835-4.902 8.22 8.22 0 0 0-5.013-2.426zm6.1-3.527a5.42 5.42 0 0 0-2.153 3.527h3.381a8.2 8.2 0 0 0-1.227-3.527" clip-rule="evenodd" />
</svg>
